static/masks/Maske-1-2.svg

<svg viewBox="0 0 1080 1080" xmlns="http://www.w3.org/2000/svg"><path d="m0 0v1080h1080v-1080zm906 103.08c-59.05 72.99-101.63 217.64-101.63 425.81s42.58 352.84 101.63 428.66v121.45h-492.21v-363.91h-239.79v-242.61c185.1 0 239.79-144.64 239.79-382.57v-88.91h492.2v102.08z"/></svg>

<?xml version="1.0" encoding="UTF-8"?>
<svg id="Ebene_5" data-name="Ebene 5" xmlns="http://www.w3.org/2000/svg" viewBox="0 0 1080 1080">
  <path d="M0,0V1080H1080V0H0ZM906,103.08c-59.05,72.99-101.63,217.64-101.63,425.81s42.58,352.84,101.63,428.66v121.45H413.79v-363.91H174v-242.61c185.1,0,239.79-144.64,239.79-382.57V1h492.2V103.08Z"/>
</svg>
